svg/furkot/freepik/lightbulb.svg

<svg viewBox="0 0 512 512" xmlns="http://www.w3.org/2000/svg"><path d="m256 124.721c-69.556 0-125.963 54.021-125.963 120.669 0 79.142 54.958 99.317 54.958 145.364 0 11.384 8.704 21.972 21.777 29.751-2.735 2.276-4.26 4.771-4.26 7.385 0 3.508 2.756 6.787 7.495 9.598-4.444 2.756-7.026 5.926-7.026 9.314 0 3.42 2.636 6.623 7.179 9.401-4.641 2.789-7.343 6.046-7.343 9.499 0 4.227 3.987 8.094 10.654 11.242-2.581 2.342-4.063 4.935-4.063 7.659 0 8.061 12.56 14.913 30.219 17.658 3.105 5.752 9.401 9.739 16.743 9.739 7.332 0 13.617-3.954 16.722-9.684 17.833-2.702 30.535-9.598 30.535-17.681 0-2.69-1.427-5.25-3.954-7.56 6.808-3.17 10.871-7.092 10.871-11.351 0-3.421-2.625-6.634-7.179-9.401 4.63-2.8 7.343-6.035 7.343-9.489 0-3.507-2.767-6.786-7.495-9.608 4.466-2.745 7.037-5.926 7.037-9.314 0-2.712-1.645-5.272-4.586-7.604 12.865-7.767 21.417-18.246 21.417-29.532 0-46.069 54.893-66.233 54.893-145.365-.011-66.669-56.407-120.69-125.974-120.69zm65.776 195.344c-12.55 18.432-26.744 39.261-27.616 67.889-4.314 4.804-19.706 12.615-38.116 12.615-18.422 0-33.825-7.811-38.128-12.636-.872-28.64-15.088-49.468-27.659-67.889-14.02-20.546-27.256-39.947-27.256-74.665 0-48.357 41.723-87.705 92.999-87.705 51.287 0 93.01 39.348 93.01 87.705 0 34.729-13.236 54.141-27.234 74.686zm-65.776-237.666c9.063 0 16.482-9.804 16.482-21.787v-38.825c0-11.983-7.419-21.787-16.482-21.787s-16.482 9.804-16.482 21.787v38.825c0 11.994 7.419 21.787 16.482 21.787zm-84.458 22.637c7.854-4.531 9.357-16.732 3.377-27.103l-19.402-33.629c-5.991-10.381-17.321-15.164-25.175-10.632s-9.368 16.733-3.388 27.103l19.424 33.629c5.991 10.382 17.309 15.164 25.164 10.632zm-72.465 36.657-33.606-19.412c-10.382-5.992-22.583-4.477-27.115 3.377-4.531 7.854.24 19.173 10.633 25.164l33.617 19.413c10.382 5.991 22.583 4.477 27.104-3.377 4.52-7.855-.251-19.173-10.633-25.165zm363.945 210.116-33.617-19.401c-10.382-6.003-22.583-4.488-27.104 3.377-4.531 7.854.229 19.173 10.643 25.164l33.596 19.413c10.382 5.991 22.583 4.477 27.114-3.377 4.532-7.866-.239-19.184-10.632-25.176zm-375.938-100.493c0-9.075-9.805-16.482-21.788-16.482h-38.825c-11.982 0-21.787 7.418-21.787 16.482 0 9.063 9.805 16.482 21.787 16.482h38.825c11.983 0 21.788-7.419 21.788-16.482zm398.445-16.482h-38.814c-11.994 0-21.788 7.418-21.788 16.482 0 9.063 9.794 16.482 21.788 16.482h38.814c11.993 0 21.787-7.419 21.787-16.482 0-9.064-9.805-16.482-21.787-16.482zm-402.934 97.574-33.617 19.401c-10.382 5.992-15.164 17.31-10.632 25.176 4.531 7.854 16.732 9.357 27.114 3.377l33.607-19.413c10.381-5.991 15.163-17.31 10.632-25.164-4.521-7.844-16.722-9.38-27.104-3.377zm346.81-162.173 33.617-19.413c10.382-5.991 15.164-17.31 10.632-25.164-4.531-7.854-16.732-9.369-27.114-3.377l-33.607 19.412c-10.37 5.992-15.163 17.31-10.632 25.165 4.521 7.854 16.722 9.368 27.104 3.377zm-47.736-136.574c-7.865-4.531-19.195.251-25.186 10.632l-19.402 33.629c-5.991 10.382-4.477 22.572 3.377 27.103 7.865 4.532 19.184-.25 25.175-10.632l19.424-33.628c5.98-10.371 4.455-22.572-3.388-27.104z"/></svg>

<svg xmlns="http://www.w3.org/2000/svg" viewBox="0 0 512 512"><path d="M256 124.721C186.444 124.721 130.037 178.742 130.037 245.39 130.037 324.532 184.995 344.707 184.995 390.754 184.995 402.138 193.699 412.726 206.772 420.505 204.037 422.781 202.512 425.276 202.512 427.89 202.512 431.398 205.268 434.677 210.007 437.488 205.563 440.244 202.981 443.414 202.981 446.802 202.981 450.222 205.617 453.425 210.16 456.203 205.519 458.992 202.817 462.249 202.817 465.702 202.817 469.929 206.804 473.796 213.471 476.944 210.89 479.286 209.408 481.879 209.408 484.603 209.408 492.664 221.968 499.516 239.627 502.261 242.732 508.013 249.028 512 256.37 512 263.702 512 269.987 508.046 273.092 502.316 290.925 499.614 303.627 492.718 303.627 484.635 303.627 481.945 302.2 479.385 299.673 477.075 306.481 473.905 310.544 469.983 310.544 465.724 310.544 462.303 307.919 459.09 303.365 456.323 307.995 453.523 310.708 450.288 310.708 446.834 310.708 443.327 307.941 440.048 303.213 437.226 307.679 434.481 310.25 431.3 310.25 427.912 310.25 425.2 308.605 422.64 305.664 420.308 318.529 412.541 327.081 402.062 327.081 390.776 327.081 344.707 381.974 324.543 381.974 245.411 381.963 178.742 325.567 124.721 256 124.721ZM321.776 320.065C309.226 338.497 295.032 359.326 294.16 387.954 289.846 392.758 274.454 400.569 256.044 400.569 237.622 400.569 222.219 392.758 217.916 387.933 217.044 359.293 202.828 338.465 190.257 320.044 176.237 299.498 163.001 280.097 163.001 245.379 163.001 197.022 204.724 157.674 256 157.674 307.287 157.674 349.01 197.022 349.01 245.379 349.01 280.108 335.774 299.52 321.776 320.065ZM256 82.399C265.063 82.399 272.482 72.595 272.482 60.612V21.787C272.482 9.804 265.063 0 256 0S239.518 9.804 239.518 21.787V60.612C239.518 72.606 246.937 82.399 256 82.399ZM171.542 105.036C179.396 100.505 180.899 88.304 174.919 77.933L155.517 44.304C149.526 33.923 138.196 29.14 130.342 33.672 122.488 38.204 120.974 50.405 126.954 60.775L146.378 94.404C152.369 104.786 163.687 109.568 171.542 105.036ZM99.077 141.693L65.471 122.281C55.089 116.289 42.888 117.804 38.356 125.658 33.825 133.512 38.596 144.831 48.989 150.822L82.606 170.235C92.988 176.226 105.189 174.712 109.71 166.858 114.23 159.003 109.459 147.685 99.077 141.693ZM463.022 351.809L429.405 332.408C419.023 326.405 406.822 327.92 402.301 335.785 397.77 343.639 402.53 354.958 412.944 360.949L446.54 380.362C456.922 386.353 469.123 384.839 473.654 376.985 478.186 369.119 473.415 357.801 463.022 351.809ZM87.084 251.316C87.084 242.241 77.279 234.834 65.296 234.834H26.471C14.489 234.834 4.684 242.252 4.684 251.316 4.684 260.379 14.489 267.798 26.471 267.798H65.296C77.279 267.798 87.084 260.379 87.084 251.316ZM485.529 234.834H446.715C434.721 234.834 424.927 242.252 424.927 251.316 424.927 260.379 434.721 267.798 446.715 267.798H485.529C497.522 267.798 507.316 260.379 507.316 251.316 507.316 242.252 497.511 234.834 485.529 234.834ZM82.595 332.408L48.978 351.809C38.596 357.801 33.814 369.119 38.346 376.985 42.877 384.839 55.078 386.342 65.46 380.362L99.067 360.949C109.448 354.958 114.23 343.639 109.699 335.785 105.178 327.941 92.977 326.405 82.595 332.408ZM429.405 170.235L463.022 150.822C473.404 144.831 478.186 133.512 473.654 125.658 469.123 117.804 456.922 116.289 446.54 122.281L412.933 141.693C402.563 147.685 397.77 159.003 402.301 166.858 406.822 174.712 419.023 176.226 429.405 170.235ZM381.669 33.661C373.804 29.13 362.474 33.912 356.483 44.293L337.081 77.922C331.09 88.304 332.604 100.494 340.458 105.025 348.323 109.557 359.642 104.775 365.633 94.393L385.057 60.765C391.037 50.394 389.512 38.193 381.669 33.661Z"/></svg>
